X:2845
T:Katerina
M:4/4
O:Finland
R:Polka
Z:Richard Robinson 
%%TUNEURL: http://www.leeds.ac.uk/music/Info/RRTuneBk/gettune/00000c00.html
%%ID:00000c00
K:D min
AAAA ^GGGG| A2F2 D2DF| E2EG F2E2| DEFG A4|\
AAAA ^GGGG| A2F2 D2DF|
E2EG F2E2|1 D4 D4 :|2 D4 ^F4||\
G^FGA BdBG| ABAG A2F2| EDEF GFEG| FEDF E2A,2|
AAAA ^GGGG| A2F2 D2DF| E2EG F2E2|1 D4 ^F4 :|2 D4 D4|| \
CCCC =B,B,B,B,| C2F2 A2Ac|
B2BB A2G2| AAAA G2F2|\
CCCC =B,B,B,B,| C2F2 A2Ac| B2BB A2G2|1 F4 F4 :|2 F4 E4 |]
